!!!OTL: Die heilige Odilchen (299), S. 618
!!!id: T0489
**kern
*clefG2
*k[]
*d:
{4a
=1
2dd
4dd
=2
8cc
8b
4a
4b
=3
2cc
4dd
=4
2a}
4r
=5
{2cc
4cc
=6
4.dd
8a
4a
=7
4b-
4a
4g
=8
2f}
=9
{4f
=10
2g
4a
=11
8b-
8a
4g
4f
=12
4e
4d}
==
*-
!!!minrhy: 8
!!!meters: 3/4 ]  ZZ[3
!!!cut: Die heilige Odilchen (299), S. 618
!!!reg: Luxemburg
!!!trd: Singendes Volk, Esch-Alzette 1937 posth.
!!!rhy1: X_  X__X_  XXX_X_  X__X_  X__0_
!!!rhy2: X__X_  X_.XX_  X_X_X_  X__
!!!key: T0489  08  D 3/4 ]  ZZ[3
!!!mod: ACHTTONSKALA MELODISCH MOLL OHNE 7]  AMBITUS[8
!!!kad: 53b1
!!!akz: +17b7b5_7b+16b3b_46b2_
!!!fot: 'a__b__c__
!!!for: 'a__b__c__
!!!fok: 'M__\__^d_
!! PHRAS[VORWIEGEND AUFTAKTIG]
!!!fkt: geistliches Lied
!!!bem: Ettelbruck, hhh J.P. Neuen aus Esch-Alzette
!! THILL, Mathias
!! PR[6] 2K[6] 2G[13] 3K[10] 3G[0] 4A[6] 4Ü[0] 5A[0] 6K[0] 6G[0]
!! 7K[0] 7G[0] 8A[0] MEHR[0] SI[35] ABS[31] SR[19] SP[16]
!! ST[8] 2k[19] 2g[32] 3k[6] 3g[0] 4d[0] 4ü[0] 5d[0] 6k[0] 6g[0]
!! 7k[0] 7g[0] 8d[0] mehr[0] si[58] dm[-23] sr[52] sp[6]
!! 1F[78] 2F[11] 3F[0] 4F[0] LF[0] 2P[11] 3P[0] 4P[0] TRI[0] DF[3] AB[36]
!! TF[0] U3K[0] U3[0] U4[0] U4Ü[0] U5[0] U6K[0] U6[0] U7K[6] U7[0]
!! N1[13] N2K[0] N2[19] N3K[25] N3[0] N4[19] N4Ü[0] N5[13] N6K[6] N6[0]
!!!n7k: 0] N7[0] O1[0] O2K[0] O2[0] O3K[0] O3[0] HÖ[0
